X: 7756
T: Columba Ward's
R: reel
M: 4/4
K: Amajor
cAce a2 ed|cAEA GBBd|cAce aefd|ecdB cAAd|
cAce a2 ed|cAEA GBBc|AcBd ce^df|ecdB cAAg|
a2 Aa caAg|a2 ce dcBg|a2 Aa cacA|GBed cAAg|
a2 Aa caAg|a2 ce dcBc|AcBd ce^df|ecdB cAAd|

